X: 72
T: No_75_Corn-grinding_Song_(b).krn
N: Derived from No_75_Corn-grinding_Song_(b).krn
%%abc-version 2.0
%%abcx-abcm2ps-target-version 5.9.1 (29 Sep 2008)
%%abc-creator hum2abc beta
%%abcx-conversion-date 2019/03/15 08:25:36
%%humdrum-veritas 1737452347
%%humdrum-veritas-data 2556802337
%%linebreak <none>
%%barnumbers 0
L: 1/8
M: 2/4
K: E clef=bass
[K:clef=bass][M:2/4]G,3/A,/ G,A, | 
G,3/F,/E,2 | 
(3G,F,G, F,3/E,/ | 
C,2B,,G,,/ z/ | 
B,,/B,,/G,,B,,2 | 
[M:3/4]C,C, B,,G,, B,,/B,,/G,, | 
[M:2/4]C,C, C,B,, | 
C,/C,/G,, G,,3/C,/ | 
B,,/B,,/G,, G,,G,, | 
[M:3/4]B,,/B,,/G,, G,,G,,/ z/z2 | 
G,G, G,G, G,F, | 
[M:2/4]E,/E,/C,C,2- | 
C,B,, B,,B,,/E,/ | 
[M:3/4]E,4F,F, | 
[M:2/4]E,/C,3/ (3C,B,,D, | 
C,C,C,2 | 
[M:3/4]C,C, C,C,z2 | 
G,G,G,3F, | 
[M:2/4]E,/C,3/C,2- | 
C,B,, z3/ B,,/ | 
[M:3/4]E,4F,F, | 
[M:2/4]E,/C,3/ (3C,B,,D, | 
C,C,C,2 | 
[M:3/4]C,C, C,C,z2 | 
[M:2/4]C,/C,/B,, B,,C, | 
B,,/B,,/G,, G,,G,, | 
[M:3/4]B,,/B,,/G,, G,,G,,z2 | 
[M:2/4]C,C,/C,/ C,C, | 
(3C,B,,D,C,2 | 
C,/B,,/B,, B,,C, | 
B,,/B,,/G,, G,,G,, | 
[M:3/4]B,,/B,,/G,, G,,G,,z2 | 
[M:2/4]B,,/B,,/B,, B,,B,, | 
[M:3/4]B,,B,, B,,B,,z2 | 
[M:2/4]B,,/B,,/G,, G,,G,, | 
[M:3/4]B,,/B,,/G,, G,,G,,z2 | 
[M:2/4]B,,/B,,/G,,/G,,/ G,,G,, | 
B,,/B,,/G,,/G,,/ G,,G,, |]  



% FRACTION = 0.499268BUT SHOULD BE 0
